!!!COM: Bach, Johann Sebastian
!!!CDT: 1685/3//-1750/7/28/
!!!OTL@@DE: Nun ruhen alle Waelder
!!!OTL@EN:  Now rests all the forest
!!!AGN: 4-Part Chorale
!!!SCT: BH 117
!!!SCT: BWV 244
**harm	**root	**kern	**kern	**kern	**kern
!	!	!bass	!tenor	!alto	!soprno
*	*Iorgan	*Iorgan	*Iorgan	*Iorgan	*Iorgan
*M4/4	*M4/4	*M4/4	*M4/4	*M4/4	*M4/4
*met(c)	*met(c)	*met(c)	*met(c)	*met(c)	*met(c)
*MM60	*MM60	*MM60	*MM60	*MM60	*MM60
*k[b-e-a-]	*k[b-e-a-]	*k[b-e-a-]	*k[b-e-a-]	*k[b-e-a-]	*k[b-e-a-]
*E-:	*E-:	*E-:	*E-:	*E-:	*E-:
I	4AA-	4E-	4B-	4e-	4g
=1	=1	=1	=1	=1	=1
IV	4DD-	8A-	4A-	4c	4e-
.	.	8G	.	.	.
viiob	4GG	4F	4A-	4d	4f
I	4AA-	4.E-	8B-	8e-	8g
.	.	.	8A-	8f	8a-
I	4AA-	.	8G	4g	4b-
.	.	8D	8F	.	.
=2	=2	=2	=2	=2	=2
IV7b	4DD-	4C	4E-	4g	2a-
V7b	4EE-	4D	4B-	4f	.
I;	4AA-;	4E-;	4B-;	4e-;	4g;
vi	4FF	4C	4c	4e-	8g
.	.	.	.	.	8a-
=3	=3	=3	=3	=3	=3
Ib	4AA-	8GG	4B-	8e-	4b-
.	.	8FF	.	8d	.
Ib	4AA-	8GG	4B-	8e-	4b-
.	.	8AA-	.	8c	.
V	4EE-	8BB-	4B-	8d	4f
.	.	8AA-	.	8c	.
iii	4CC	4GG	4D	4B-	4g
=4	=4	=4	=4	=4	=4
viib/V	2DD	2C	8E-	4B-	2e-
.	.	.	8D	.	.
.	.	.	4E-	4A	.
V;	4EE-;	4BB-;	4F;	4B-;	4d;
V7d	4EE-	4AA-y	8D	4F	4B-
.	.	.	8C	.	.
=5	=5	=5	=5	=5	=5
Ib	4AA-	4GG	4BB-	4B-	4e-
ii	4BB-	4FF	8C	4A-	4f
.	.	.	8D	.	.
I	4AA-	8EE-	4E-	8G	4g
.	.	8FF	.	8A-	.
Ib	4AA-	8GG	4E-	4B-	4g
.	.	8AA-	.	.	.
=6	=6	=6	=6	=6	=6
V;	2.EE-;	2.BB-;	2.D;	2.B-;	2.f;
Vb/vi	4CC	4BB	4G	4d	4g
!!linebreak: 2
=7	=7	=7	=7	=7	=7
vi	4FF	4C	8G	4c	4e-
.	.	.	8A-	.	.
Vb	4EE-	4D	8G	4B-	4f
.	.	.	8F	.	.
I	4AA-	4E-	8E-	4B-	8g
.	.	.	8F	.	8a-
V7b/II	4FF	4E	4G	4c	4b-
=8	=8	=8	=8	=8	=8
ii	2BB-	4F	8F	8c	2a-
.	.	.	8G	8B-	.
.	.	4FF	8A-	8c	.
.	.	.	8B-	8d	.
VI;	4FF;	4C;	4c;	4e;	4g;
vi	4FF	4C	4c	4e-	8g
.	.	.	.	.	8a-
=9	=9	=9	=9	=9	=9
Vb	4EE-	4D	8B-	4f	4b-
.	.	.	8A-	.	.
I	4AA-	4E-	4G	8e-	4b-
.	.	.	.	8d	.
V7d/V	4BB-	8E-	4A	4c	4f
.	.	8D	.	.	.
III	4CC	8C	4D	4d	4g
.	.	8BB	.	.	.
=10	=10	=10	=10	=10	=10
vi	4FF	8C	2G	4d	2e-
.	.	8D	.	.	.
vib	4FF	8E-	.	4c	.
.	.	8F	.	.	.
III;	4CC;	4G;	4G;	4B;	4d;
iii	4CC	4GG	4G	4B-	4B-
=11	=11	=11	=11	=11	=11
vi7	8FF	4C	8G	8B-	4e-
IVc	8DD-	.	8A-	8c	.
iii7c	8CC	4D	8G	8B-	4f
viio	8GG	.	8F	8A-	.
I	4AA-	8E-	4E-	8G	4g
.	.	8D	.	8B-	.
IVb	4DD-	8C	4E-	8c	4a-
.	.	8BB-	.	8d	.
=12	=12	=12	=12	=12	=12
IV7	4DD-	4AA-	4c	4e-	4g
V	4EE-	4BB-	8F	4d	4f
.	.	.	16G	.	.
.	.	.	16A-	.	.
I;	4AA-;	4EE-;	4G;	4B-;	4e-;
==	==	==	==	==	==
*-	*-	*-	*-	*-	*-
!!chor2scor: -l 2 -s 0.6 -o %b.pmx
!!!YEC: Copyright 1994, David Huron
!!!YEC: Changes/Additions 2001 by Craig Stuart Sapp
!!!YEN: United States of America
!!!SMA: 371 Bach Chorales, edited by Ludwig Erk, C.F. Peters
!!!PDT: 1850, 1865
!!!ONB: Harmony and Root analysis done manually
